imgs/github.svg

<svg width="21" height="20" viewBox="0 0 21 20" fill="none" xmlns="http://www.w3.org/2000/svg">
<path d="M6.86094 16.104C6.86094 16.1867 6.76582 16.2529 6.64589 16.2529C6.50941 16.2653 6.41429 16.1991 6.41429 16.104C6.41429 16.0213 6.50941 15.9551 6.62934 15.9551C6.75341 15.9427 6.86094 16.0089 6.86094 16.104ZM5.57477 15.9179C5.54582 16.0006 5.62853 16.0957 5.7526 16.1205C5.86013 16.1619 5.98419 16.1205 6.00901 16.0378C6.03382 15.9551 5.95524 15.86 5.83118 15.8228C5.72365 15.7938 5.60372 15.8352 5.57477 15.9179ZM7.4027 15.8476C7.28277 15.8765 7.20005 15.9551 7.21246 16.0502C7.22487 16.1329 7.33239 16.1867 7.45646 16.1577C7.57639 16.1288 7.6591 16.0502 7.6467 15.9675C7.63429 15.8889 7.52263 15.8352 7.4027 15.8476ZM10.1239 0C4.38786 0 0 4.35477 0 10.0908C0 14.6772 2.88664 18.6019 7.00982 19.9832C7.53917 20.0783 7.72527 19.7516 7.72527 19.4827C7.72527 19.2263 7.71287 17.812 7.71287 16.9435C7.71287 16.9435 4.81796 17.5638 4.21003 15.7111C4.21003 15.7111 3.73857 14.5076 3.06033 14.1975C3.06033 14.1975 2.11328 13.5482 3.1265 13.5606C3.1265 13.5606 4.15626 13.6433 4.72284 14.6276C5.62853 16.2239 7.14629 15.7649 7.73768 15.4919C7.8328 14.8302 8.10161 14.3712 8.39937 14.0982C6.08758 13.8418 3.75511 13.5068 3.75511 9.52839C3.75511 8.3911 4.06942 7.82039 4.73111 7.09253C4.62358 6.82372 4.27206 5.71538 4.83864 4.28447C5.70297 4.01565 7.69219 5.40108 7.69219 5.40108C8.51931 5.16948 9.40846 5.04955 10.2893 5.04955C11.1702 5.04955 12.0594 5.16948 12.8865 5.40108C12.8865 5.40108 14.8757 4.01152 15.74 4.28447C16.3066 5.71951 15.9551 6.82372 15.8476 7.09253C16.5093 7.82453 16.9145 8.39524 16.9145 9.52839C16.9145 13.5192 14.4787 13.8377 12.1669 14.0982C12.5474 14.4249 12.8699 15.0453 12.8699 16.0171C12.8699 17.4108 12.8575 19.1354 12.8575 19.4745C12.8575 19.7433 13.0478 20.07 13.573 19.9749C17.7086 18.6019 20.5125 14.6772 20.5125 10.0908C20.5125 4.35477 15.86 0 10.1239 0ZM4.01979 14.2636C3.96603 14.305 3.97843 14.4001 4.04874 14.4787C4.11491 14.5449 4.21003 14.5738 4.26379 14.52C4.31755 14.4787 4.30514 14.3836 4.23484 14.305C4.16867 14.2388 4.07355 14.2099 4.01979 14.2636ZM3.57315 13.9287C3.5442 13.9824 3.58555 14.0486 3.66826 14.0899C3.73443 14.1313 3.81715 14.1189 3.84609 14.061C3.87504 14.0072 3.83369 13.9411 3.75098 13.8997C3.66826 13.8749 3.6021 13.8873 3.57315 13.9287ZM4.91308 15.4009C4.84691 15.4547 4.87172 15.5788 4.96684 15.6573C5.06196 15.7524 5.18189 15.7649 5.23565 15.6987C5.28941 15.6449 5.2646 15.5209 5.18189 15.4423C5.09091 15.3472 4.96684 15.3348 4.91308 15.4009ZM4.44162 14.793C4.37545 14.8343 4.37545 14.9419 4.44162 15.037C4.50779 15.1321 4.61945 15.1735 4.67321 15.1321C4.73938 15.0783 4.73938 14.9708 4.67321 14.8757C4.61531 14.7806 4.50779 14.7392 4.44162 14.793Z" fill="black"/>
</svg>

<?xml version="1.0" encoding="utf-8"?>
<!-- Generator: Adobe Illustrator 28.1.0, SVG Export Plug-In . SVG Version: 6.00 Build 0)  -->
<svg version="1.1" id="Layer_1" xmlns="http://www.w3.org/2000/svg" xmlns:xlink="http://www.w3.org/1999/xlink" x="0px" y="0px"
	 viewBox="0 0 21 20" style="enable-background:new 0 0 21 20;" xml:space="preserve">
<style type="text/css">
	.st0{fill:#FFFFFF;}
</style>
<path class="st0" d="M6.9,16.1c0,0.1-0.1,0.1-0.2,0.1c-0.1,0-0.2-0.1-0.2-0.1C6.4,16,6.5,16,6.6,16C6.8,15.9,6.9,16,6.9,16.1z
	 M5.6,15.9c0,0.1,0.1,0.2,0.2,0.2c0.1,0,0.2,0,0.3-0.1C6,16,6,15.9,5.8,15.8C5.7,15.8,5.6,15.8,5.6,15.9z M7.4,15.8
	c-0.1,0-0.2,0.1-0.2,0.2c0,0.1,0.1,0.1,0.2,0.1c0.1,0,0.2-0.1,0.2-0.2C7.6,15.9,7.5,15.8,7.4,15.8z M10.1,0C4.4,0,0,4.4,0,10.1
	c0,4.6,2.9,8.5,7,9.9c0.5,0.1,0.7-0.2,0.7-0.5c0-0.3,0-1.7,0-2.5c0,0-2.9,0.6-3.5-1.2c0,0-0.5-1.2-1.1-1.5c0,0-0.9-0.6,0.1-0.6
	c0,0,1,0.1,1.6,1.1c0.9,1.6,2.4,1.1,3,0.9c0.1-0.7,0.4-1.1,0.7-1.4c-2.3-0.3-4.6-0.6-4.6-4.6c0-1.1,0.3-1.7,1-2.4
	C4.6,6.8,4.3,5.7,4.8,4.3C5.7,4,7.7,5.4,7.7,5.4C8.5,5.2,9.4,5,10.3,5c0.9,0,1.8,0.1,2.6,0.4c0,0,2-1.4,2.9-1.1
	c0.6,1.4,0.2,2.5,0.1,2.8c0.7,0.7,1.1,1.3,1.1,2.4c0,4-2.4,4.3-4.7,4.6c0.4,0.3,0.7,0.9,0.7,1.9c0,1.4,0,3.1,0,3.5
	c0,0.3,0.2,0.6,0.7,0.5c4.1-1.4,6.9-5.3,6.9-9.9C20.5,4.4,15.9,0,10.1,0z M4,14.3c-0.1,0,0,0.1,0,0.2c0.1,0.1,0.2,0.1,0.2,0
	c0.1,0,0-0.1,0-0.2C4.2,14.2,4.1,14.2,4,14.3z M3.6,13.9c0,0.1,0,0.1,0.1,0.2c0.1,0,0.1,0,0.2,0c0-0.1,0-0.1-0.1-0.2
	C3.7,13.9,3.6,13.9,3.6,13.9z M4.9,15.4c-0.1,0.1,0,0.2,0.1,0.3c0.1,0.1,0.2,0.1,0.3,0c0.1-0.1,0-0.2-0.1-0.3
	C5.1,15.3,5,15.3,4.9,15.4z M4.4,14.8c-0.1,0-0.1,0.1,0,0.2c0.1,0.1,0.2,0.1,0.2,0.1c0.1-0.1,0.1-0.2,0-0.3
	C4.6,14.8,4.5,14.7,4.4,14.8z"/>
</svg>
